humanity-icon-theme/Humanity/mimes/48/application-x-sln.svg

<?xml version="1.0" encoding="UTF-8" standalone="no"?>
<!-- Created with Inkscape (http://www.inkscape.org/) -->
<svg
   xmlns:svg="http://www.w3.org/2000/svg"
   xmlns="http://www.w3.org/2000/svg"
   xmlns:xlink="http://www.w3.org/1999/xlink"
   xmlns:inkscape="http://www.inkscape.org/namespaces/inkscape"
   version="1.0"
   width="48"
   height="48"
   id="svg3624">
  <defs
     id="defs3626">
    <linearGradient
       id="linearGradient5048">
      <stop
         id="stop5050"
         style="stop-color:#000000;stop-opacity:0"
         offset="0" />
      <stop
         id="stop5056"
         style="stop-color:#000000;stop-opacity:1"
         offset="0.5" />
      <stop
         id="stop5052"
         style="stop-color:#000000;stop-opacity:0"
         offset="1" />
    </linearGradient>
    <linearGradient
       x1="302.85715"
       y1="366.64789"
       x2="302.85715"
       y2="609.50507"
       id="linearGradient2643"
       xlink:href="#linearGradient5048"
       gradientUnits="userSpaceOnUse"
       gradientTransform="matrix(6.7324884e-2,0,0,1.4700216e-2,-0.3411391,37.040146)" />
    <radialGradient
       cx="605.71429"
       cy="486.64789"
       r="117.14286"
       fx="605.71429"
       fy="486.64789"
       id="radialGradient2640"
       xlink:href="#linearGradient5060"
       gradientUnits="userSpaceOnUse"
       gradientTransform="matrix(-2.3039943e-2,0,0,1.4700216e-2,21.62311,37.040176)" />
    <linearGradient
       id="linearGradient5060">
      <stop
         id="stop5062"
         style="stop-color:#000000;stop-opacity:1"
         offset="0" />
      <stop
         id="stop5064"
         style="stop-color:#000000;stop-opacity:0"
         offset="1" />
    </linearGradient>
    <radialGradient
       cx="605.71429"
       cy="486.64789"
       r="117.14286"
       fx="605.71429"
       fy="486.64789"
       id="radialGradient2637"
       xlink:href="#linearGradient5060"
       gradientUnits="userSpaceOnUse"
       gradientTransform="matrix(2.3039948e-2,0,0,1.4700216e-2,26.360882,37.040176)" />
    <linearGradient
       id="linearGradient2490">
      <stop
         id="stop2492"
         style="stop-color:#2e4a5a;stop-opacity:1"
         offset="0" />
      <stop
         id="stop2494"
         style="stop-color:#6e8796;stop-opacity:1"
         offset="1" />
    </linearGradient>
    <linearGradient
       x1="-51.786404"
       y1="53.623615"
       x2="-51.786404"
       y2="2.9062471"
       id="linearGradient2634"
       xlink:href="#linearGradient2490"
       gradientUnits="userSpaceOnUse"
       gradientTransform="matrix(0.8074968,0,0,0.8948322,59.410232,-2.9805533)" />
    <linearGradient
       id="linearGradient3993">
      <stop
         id="stop3995"
         style="stop-color:#a3c0d0;stop-opacity:1"
         offset="0" />
      <stop
         id="stop4001"
         style="stop-color:#427da1;stop-opacity:1"
         offset="1" />
    </linearGradient>
    <radialGradient
       cx="14.76559"
       cy="10.898237"
       r="18.000002"
       fx="14.76559"
       fy="10.898237"
       id="radialGradient2632"
       xlink:href="#linearGradient3993"
       gradientUnits="userSpaceOnUse"
       gradientTransform="matrix(-2.2703142e-8,2.1357283,-3.5601359,-3.7844828e-8,54.620625,-24.438287)" />
    <radialGradient
       cx="102"
       cy="112.3047"
       r="139.55859"
       id="XMLID_8_"
       gradientUnits="userSpaceOnUse">
      <stop
         id="stop41"
         style="stop-color:#000000;stop-opacity:1"
         offset="0" />
      <stop
         id="stop47"
         style="stop-color:#000000;stop-opacity:1"
         offset="0.18851049" />
      <stop
         id="stop49"
         style="stop-color:#000000;stop-opacity:0"
         offset="0.25718147" />
      <stop
         id="stop51"
         style="stop-color:#000000;stop-opacity:0"
         offset="1" />
    </radialGradient>
    <radialGradient
       cx="102"
       cy="112.3047"
       r="139.55859"
       id="radialGradient2629"
       xlink:href="#XMLID_8_"
       gradientUnits="userSpaceOnUse"
       gradientTransform="matrix(0.3617022,0,0,-0.3907784,0.8510637,47.517004)" />
    <linearGradient
       id="linearGradient4267">
      <stop
         id="stop4269"
         style="stop-color:#c4c4c4;stop-opacity:1"
         offset="0" />
      <stop
         id="stop4271"
         style="stop-color:#c4c4c4;stop-opacity:0"
         offset="1" />
    </linearGradient>
    <linearGradient
       x1="35.516502"
       y1="4.8577352"
       x2="34.102982"
       y2="6.5436172"
       id="linearGradient2623"
       xlink:href="#linearGradient4267"
       gradientUnits="userSpaceOnUse" />
    <linearGradient
       id="linearGradient3211">
      <stop
         id="stop3213"
         style="stop-color:#ffffff;stop-opacity:1"
         offset="0" />
      <stop
         id="stop3215"
         style="stop-color:#ffffff;stop-opacity:0"
         offset="1" />
    </linearGradient>
    <linearGradient
       x1="24"
       y1="1.9999999"
       x2="24"
       y2="46.01725"
       id="linearGradient2626"
       xlink:href="#linearGradient3211"
       gradientUnits="userSpaceOnUse"
       gradientTransform="matrix(1,0,0,0.9777778,0,-0.9666693)" />
    <filter
       id="filter3212"
       x="-0.14846256"
       width="1.2969251"
       y="-0.16434373"
       height="1.3286875">
      <feGaussianBlur
         inkscape:collect="always"
         stdDeviation="0.77391625"
         id="feGaussianBlur3214" />
    </filter>
    <linearGradient
       id="linearGradient8589">
      <stop
         id="stop8591"
         style="stop-color:#fefefe;stop-opacity:1"
         offset="0" />
      <stop
         id="stop8593"
         style="stop-color:#cbcbcb;stop-opacity:1"
         offset="1" />
    </linearGradient>
    <linearGradient
       x1="32.892288"
       y1="8.0590115"
       x2="36.358372"
       y2="5.4565363"
       id="linearGradient2601"
       xlink:href="#linearGradient8589"
       gradientUnits="userSpaceOnUse"
       gradientTransform="matrix(0.9976985,0,0,1.0406866,0.1638029,-1.1057939)" />
  </defs>
  <g
     id="layer1">
    <rect
       width="32.508301"
       height="3.5700529"
       x="7.7378473"
       y="42.429947"
       id="rect2879"
       style="opacity:0.3;fill:url(#linearGradient2643);fill-opacity:1;fill-rule:nonzero;stroke:none;stroke-width:1;stroke-linecap:round;stroke-linejoin:miter;marker:none;marker-start:none;marker-mid:none;marker-end:none;stroke-miterlimit:4;stroke-dasharray:none;stroke-dashoffset:0;stroke-opacity:1;visibility:visible;display:inline;overflow:visible" />
    <path
       d="M 7.7378475,42.430102 C 7.7378475,42.430102 7.7378475,45.999958 7.7378475,45.999958 C 6.5513473,46.006679 4.869468,45.200135 4.869468,44.2148 C 4.869468,43.229467 6.1935126,42.430103 7.7378475,42.430102 z"
       id="path2881"
       style="opacity:0.3;fill:url(#radialGradient2640);fill-opacity:1;fill-rule:nonzero;stroke:none;stroke-width:1;stroke-linecap:round;stroke-linejoin:miter;marker:none;marker-start:none;marker-mid:none;marker-end:none;stroke-miterlimit:4;stroke-dasharray:none;stroke-dashoffset:0;stroke-opacity:1;visibility:visible;display:inline;overflow:visible" />
    <path
       d="M 40.246148,42.430102 C 40.246148,42.430102 40.246148,45.999958 40.246148,45.999958 C 41.432648,46.006679 43.114528,45.200135 43.114528,44.2148 C 43.114528,43.229467 41.790483,42.430103 40.246148,42.430102 z"
       id="path2883"
       style="opacity:0.3;fill:url(#radialGradient2637);fill-opacity:1;fill-rule:nonzero;stroke:none;stroke-width:1;stroke-linecap:round;stroke-linejoin:miter;marker:none;marker-start:none;marker-mid:none;marker-end:none;stroke-miterlimit:4;stroke-dasharray:none;stroke-dashoffset:0;stroke-opacity:1;visibility:visible;display:inline;overflow:visible" />
    <path
       d="M 6.4999609,0.49719878 C 14.520256,0.49719878 22.540551,0.49719878 30.560847,0.49719878 C 31.086081,2.4573984 36.693941,7.3488015 41.500042,10.123605 C 41.500042,21.583338 41.500042,33.04307 41.500042,44.502803 C 29.833348,44.502803 18.166655,44.502803 6.4999609,44.502803 C 6.4999609,29.834268 6.4999609,15.165733 6.4999609,0.49719878 z"
       id="path4160"
       style="fill:url(#radialGradient2632);fill-opacity:1;stroke:url(#linearGradient2634);stroke-width:0.99992186;stroke-linecap:butt;stroke-linejoin:round;stroke-miterlimit:4;stroke-dasharray:none;stroke-dashoffset:0;stroke-opacity:1;display:inline" />
    <path
       d="M 7.3617017,44 C 7.1624047,44 6.9999997,43.824541 6.9999997,43.60922 L 6.9999997,1.4051701 C 6.9999997,1.1894613 7.1624047,1.0143926 7.3617017,1.0143926 C 14.844793,1.1224073 23.137385,0.85281757 30.611384,1.0412872 L 40.894021,9.9073127 L 41,43.60922 C 41,43.824541 40.837957,44 40.638297,44 L 7.3617017,44 z"
       id="path4191"
       style="opacity:0.05;fill:url(#radialGradient2629);fill-opacity:1" />
    <path
       d="M 30.560847,0.5 C 31.96778,0.9746531 39.526301,6.3794034 41.500042,10.123605 C 41.500042,21.583338 41.500042,10.949143 41.500042,22.408876 C 1.0542159,38.137806 6.2643971,0.5 30.560847,0.5 z"
       id="path4238"
       style="fill:none;fill-opacity:1;stroke:url(#linearGradient2623);stroke-width:0.99992186;stroke-linecap:butt;stroke-linejoin:round;stroke-miterlimit:4;stroke-dasharray:none;stroke-dashoffset:0;stroke-opacity:1;display:inline" />
    <path
       d="M 17.25,11.6875 C 13.437735,11.687934 8.8392163,14.503489 7,19.15625 C 7,22.791667 7,26.427083 7,30.0625 C 7.8472953,33.393155 9.2040805,35.959929 10.34375,38.71875 L 15.59375,36.53125 C 14.38825,34.061822 12.83854,31.59731 12.28125,30.375 C 10.72107,26.95252 10.151,25.42108 10.28125,22.8125 C 10.4072,20.2905 11.24787,18.73682 12.78125,17.25 C 14.31466,15.76332 16.43577,15.02445 18.96875,15.375 C 24.333229,16.1182 26.05948,20.17832 26.1875,22.15625 C 26.292869,23.78306 25.12139,27.78951 21,27.59375 C 18.142879,27.4578 16.5369,25.87404 16.34375,23.1875 C 16.201459,21.2075 18.11735,19.20893 21.21875,20.21875 C 21.717949,20.38119 21.7517,19.48596 21.1875,19.03125 C 19.734939,17.86067 13.98055,18.30816 14,22.90625 C 14.01803,27.16731 17.4265,30.01215 20.71875,30.03125 C 27.613749,30.07183 28.96775,24.62892 28.71875,20.875 C 28.442859,16.71531 23.19681,11.68681 17.25,11.6875 z"
       id="path3605"
       style="opacity:1;fill:#4a6574;fill-opacity:1;fill-rule:evenodd;stroke:none;stroke-width:0.85000002;stroke-linecap:butt;stroke-linejoin:miter;stroke-miterlimit:4;stroke-dasharray:none;stroke-opacity:1" />
    <path
       d="M 17.25,10.6875 C 13.433524,10.687935 8.83787,13.525976 7,18.1875 C 7,21.8125 7,25.4375 7,29.0625 C 7.8535712,32.392012 9.2040743,34.959929 10.34375,37.71875 L 15.59375,35.53125 C 14.38825,33.06182 12.80729,30.59731 12.25,29.375 C 10.68982,25.95252 10.11974,24.42109 10.25,21.8125 C 10.37595,19.2905 11.24787,17.73681 12.78125,16.25 C 14.31466,14.76332 16.404519,14.02446 18.9375,14.375 C 24.30198,15.1182 26.028209,19.178331 26.15625,21.15625 C 26.26162,22.78306 25.121409,26.78952 21,26.59375 C 18.14288,26.4578 16.536911,24.842791 16.34375,22.15625 C 16.20146,20.17625 18.11733,18.208939 21.21875,19.21875 C 21.71795,19.38119 21.751729,18.48595 21.1875,18.03125 C 19.73494,16.86067 13.98054,17.30817 14,21.90625 C 14.01803,26.16731 17.42652,29.012151 20.71875,29.03125 C 27.61375,29.07183 28.936489,23.628929 28.6875,19.875 C 28.41161,15.71531 23.19684,10.68681 17.25,10.6875 z"
       id="path3607"
       style="fill:#eeeeec;fill-opacity:1;fill-rule:evenodd;stroke:none;stroke-width:0.85000002;stroke-linecap:butt;stroke-linejoin:miter;stroke-miterlimit:4;stroke-dasharray:none;stroke-opacity:1" />
    <path
       d="M 37.65625,11.96875 L 32.40625,14.15625 C 33.61172,16.62596 35.19272,19.08978 35.75,20.3125 C 37.31018,23.73499 37.880262,25.26627 37.75,27.875 C 37.62406,30.39658 36.75216,31.919299 35.21875,33.40625 C 33.68536,34.89293 31.595469,35.663191 29.0625,35.3125 C 23.69799,34.56986 21.97179,30.50916 21.84375,28.53125 C 21.73839,26.90472 22.878601,22.89798 27,23.09375 C 29.85712,23.2297 31.4631,24.813469 31.65625,27.5 C 31.79854,29.47987 29.88266,31.478689 26.78125,30.46875 C 26.28202,30.30645 26.248281,31.20155 26.8125,31.65625 C 28.26506,32.82696 34.019448,32.37919 34,27.78125 C 33.98197,23.52033 30.573481,20.64411 27.28125,20.625 C 20.38623,20.58415 19.063521,26.058161 19.3125,29.8125 C 19.58838,33.97177 24.80315,39.001118 30.75,39 C 34.562249,38.99979 39.158066,36.152335 41,31.5 C 41,27.854696 41,24.253614 41,20.625 C 40.14643,17.295468 38.795939,14.727757 37.65625,11.96875 z"
       id="path3609"
       style="opacity:0.77380952;fill:#466170;fill-opacity:1;fill-rule:evenodd;stroke:none;stroke-width:0.85000002;stroke-linecap:butt;stroke-linejoin:miter;stroke-miterlimit:4;stroke-dasharray:none;stroke-opacity:1" />
    <path
       d="M 37.5,10.6875 L 32.25,12.875 C 33.45547,15.34471 35.036471,17.80853 35.59375,19.03125 C 37.15393,22.45374 37.724009,23.98502 37.59375,26.59375 C 37.46781,29.11533 36.595911,30.638049 35.0625,32.125 C 33.52911,33.61168 31.43922,34.381941 28.90625,34.03125 C 23.54174,33.28861 21.815539,29.227911 21.6875,27.25 C 21.58214,25.62347 22.72235,21.61673 26.84375,21.8125 C 29.70087,21.94845 31.306851,23.53222 31.5,26.21875 C 31.64229,28.19862 29.726409,30.19744 26.625,29.1875 C 26.12577,29.0252 26.09203,29.920301 26.65625,30.375 C 28.10881,31.54571 33.894449,31.097941 33.875,26.5 C 33.85697,22.23908 30.41723,19.36286 27.125,19.34375 C 20.22998,19.3029 18.907269,24.776909 19.15625,28.53125 C 19.43213,32.69052 24.646901,37.71987 30.59375,37.71875 C 34.516696,37.718534 39.272306,34.708226 41,29.8125 C 41,26.490962 41,23.208837 41,19.90625 C 40.162743,16.300559 38.7022,13.597835 37.5,10.6875 z"
       id="path3611"
       style="fill:#a9c5d3;fill-opacity:1;fill-rule:evenodd;stroke:none;stroke-width:0.85000002;stroke-linecap:butt;stroke-linejoin:miter;stroke-miterlimit:4;stroke-dasharray:none;stroke-opacity:1" />
    <path
       d="M 40.500039,10.258811 C 40.500039,21.207848 40.500039,32.573221 40.500039,43.522258 C 29.500013,43.522258 18.499987,43.522258 7.4999609,43.522258 C 7.4999609,29.507417 7.4999609,15.492577 7.4999609,1.4777367 C 15.061954,1.4777367 22.804295,1.4777367 30.366289,1.4777367"
       id="path2435"
       style="opacity:0.4;fill:none;fill-opacity:1;stroke:url(#linearGradient2626);stroke-width:1;stroke-linecap:butt;stroke-linejoin:miter;stroke-miterlimit:4;stroke-dasharray:none;stroke-dashoffset:0;stroke-opacity:1;display:inline" />
    <path
       d="M 28.617256,0.92125832 C 32.899778,0.92125832 30.770506,9.4044296 30.770506,9.4044296 C 30.770506,9.4044296 41.128148,7.6020829 41.128148,12.223174 C 41.128148,9.6134507 29.825844,1.4945784 28.617256,0.92125832 z"
       id="path12038"
       style="opacity:0.4;fill:#000000;fill-opacity:1;fill-rule:evenodd;stroke:none;stroke-width:1px;stroke-linecap:butt;stroke-linejoin:miter;stroke-opacity:1;display:inline;filter:url(#filter3212)" />
    <path
       d="M 28.617256,0.92125832 C 31.803749,0.92125832 30.953016,8.5831368 30.953016,8.5831368 C 30.953016,8.5831368 41.128148,7.6020829 41.128148,12.223174 C 41.128148,11.097235 41.214061,10.290929 40.994371,9.9395812 C 39.416058,7.4154025 32.881194,1.7511811 30.41941,1.008793 C 30.235188,0.95323837 29.544367,0.92125832 28.617256,0.92125832 z"
       id="path4474"
       style="fill:url(#linearGradient2601);fill-opacity:1;fill-rule:evenodd;stroke:none;stroke-width:1px;stroke-linecap:butt;stroke-linejoin:miter;stroke-opacity:1;display:inline" />
  </g>
</svg>

<?xml version="1.0" encoding="UTF-8" standalone="no"?>
<!-- Created with Inkscape (http://www.inkscape.org/) -->
<svg id="svg3624" xmlns="http://www.w3.org/2000/svg" height="48" width="48" version="1.0" xmlns:xlink="http://www.w3.org/1999/xlink">
 <defs id="defs3626">
  <linearGradient id="linearGradient2643" y2="609.51" gradientUnits="userSpaceOnUse" x2="302.86" gradientTransform="matrix(.067325 0 0 0.0147 -.34114 37.04)" y1="366.65" x1="302.86">
   <stop id="stop5050" style="stop-opacity:0" offset="0"/>
   <stop id="stop5056" offset=".5"/>
   <stop id="stop5052" style="stop-opacity:0" offset="1"/>
  </linearGradient>
  <radialGradient id="radialGradient2640" xlink:href="#linearGradient5060" gradientUnits="userSpaceOnUse" cy="486.65" cx="605.71" gradientTransform="matrix(-.023040 0 0 0.0147 21.623 37.04)" r="117.14"/>
  <linearGradient id="linearGradient5060">
   <stop id="stop5062" offset="0"/>
   <stop id="stop5064" style="stop-opacity:0" offset="1"/>
  </linearGradient>
  <radialGradient id="radialGradient2637" xlink:href="#linearGradient5060" gradientUnits="userSpaceOnUse" cy="486.65" cx="605.71" gradientTransform="matrix(.023040 0 0 0.0147 26.361 37.04)" r="117.14"/>
  <linearGradient id="linearGradient2634" y2="2.9062" gradientUnits="userSpaceOnUse" x2="-51.786" gradientTransform="matrix(.80750 0 0 .89483 59.41 -2.9806)" y1="53.624" x1="-51.786">
   <stop id="stop2492" style="stop-color:#2e4a5a" offset="0"/>
   <stop id="stop2494" style="stop-color:#6e8796" offset="1"/>
  </linearGradient>
  <radialGradient id="radialGradient2632" gradientUnits="userSpaceOnUse" cy="10.898" cx="14.766" gradientTransform="matrix(-2.2703e-8 2.1357 -3.5601 -3.7845e-8 54.621 -24.438)" r="18">
   <stop id="stop3995" style="stop-color:#a3c0d0" offset="0"/>
   <stop id="stop4001" style="stop-color:#427da1" offset="1"/>
  </radialGradient>
  <radialGradient id="radialGradient2629" gradientUnits="userSpaceOnUse" cy="112.3" cx="102" gradientTransform="matrix(.36170 0 0 -.39078 .85106 47.517)" r="139.56">
   <stop id="stop41" offset="0"/>
   <stop id="stop47" offset=".18851"/>
   <stop id="stop49" style="stop-opacity:0" offset=".25718"/>
   <stop id="stop51" style="stop-opacity:0" offset="1"/>
  </radialGradient>
  <linearGradient id="linearGradient2623" y2="6.5436" gradientUnits="userSpaceOnUse" x2="34.103" y1="4.8577" x1="35.517">
   <stop id="stop4269" style="stop-color:#c4c4c4" offset="0"/>
   <stop id="stop4271" style="stop-color:#c4c4c4;stop-opacity:0" offset="1"/>
  </linearGradient>
  <linearGradient id="linearGradient2626" y2="46.017" gradientUnits="userSpaceOnUse" x2="24" gradientTransform="matrix(1 0 0 .97778 0 -.96667)" y1="2" x1="24">
   <stop id="stop3213" style="stop-color:#fff" offset="0"/>
   <stop id="stop3215" style="stop-color:#fff;stop-opacity:0" offset="1"/>
  </linearGradient>
  <filter id="filter3212" y="-.16434" x="-.14846" height="1.3287" width="1.2969">
   <feGaussianBlur id="feGaussianBlur3214" stdDeviation="0.77391625"/>
  </filter>
  <linearGradient id="linearGradient2601" y2="5.4565" gradientUnits="userSpaceOnUse" x2="36.358" gradientTransform="matrix(.99770 0 0 1.0407 .16380 -1.1058)" y1="8.059" x1="32.892">
   <stop id="stop8591" style="stop-color:#fefefe" offset="0"/>
   <stop id="stop8593" style="stop-color:#cbcbcb" offset="1"/>
  </linearGradient>
 </defs>
 <g id="layer1">
  <rect id="rect2879" style="opacity:.3;fill:url(#linearGradient2643)" height="3.5701" width="32.508" y="42.43" x="7.7378"/>
  <path id="path2881" style="opacity:.3;fill:url(#radialGradient2640)" d="m7.7378 42.43v3.57c-1.1865 0.007-2.8683-0.8-2.8683-1.785 0-0.986 1.324-1.785 2.8683-1.785z"/>
  <path id="path2883" style="opacity:.3;fill:url(#radialGradient2637)" d="m40.246 42.43v3.57c1.187 0.007 2.869-0.8 2.869-1.785 0-0.986-1.325-1.785-2.869-1.785z"/>
  <path id="path4160" style="stroke-linejoin:round;stroke:url(#linearGradient2634);stroke-width:.99992;fill:url(#radialGradient2632)" d="m6.5 0.4972h24.061c0.525 1.9602 6.133 6.8516 10.939 9.6268v34.379h-35v-44.006z"/>
  <path id="path4191" style="opacity:.05;fill:url(#radialGradient2629)" d="m7.3617 44c-0.1993 0-0.3617-0.175-0.3617-0.391v-42.204c0-0.2155 0.1624-0.3906 0.3617-0.3906 7.4833 0.108 15.775-0.16158 23.249 0.0269l10.283 8.866 0.106 33.702c0 0.216-0.162 0.391-0.362 0.391h-33.276z"/>
  <path id="path4238" style="stroke-linejoin:round;stroke:url(#linearGradient2623);stroke-width:.99992;fill:none" d="m30.561 0.5c1.407 0.47465 8.965 5.8794 10.939 9.624v12.285c-40.446 15.729-35.236-21.909-10.939-21.909z"/>
  <path id="path3605" style="fill:#4a6574;fill-rule:evenodd" d="m17.25 11.688c-3.812 0-8.4108 2.815-10.25 7.468v10.906c0.8473 3.331 2.2041 5.898 3.344 8.657l5.25-2.188c-1.206-2.469-2.755-4.934-3.313-6.156-1.56-3.422-2.13-4.954-2-7.563 0.126-2.522 0.967-4.075 2.5-5.562 1.534-1.487 3.655-2.226 6.188-1.875 5.364 0.743 7.09 4.803 7.219 6.781 0.105 1.627-1.067 5.634-5.188 5.438-2.857-0.136-4.463-1.72-4.656-4.406-0.143-1.98 1.773-3.979 4.875-2.969 0.499 0.162 0.533-0.733-0.031-1.188-1.453-1.17-7.207-0.723-7.188 3.875 0.018 4.261 3.426 7.106 6.719 7.125 6.895 0.041 8.249-5.402 8-9.156-0.276-4.16-5.522-9.188-11.469-9.187z"/>
  <path id="path3607" style="fill:#eeeeec;fill-rule:evenodd" d="m17.25 10.688c-3.816 0-8.4121 2.838-10.25 7.5v10.874c0.8536 3.33 2.2041 5.898 3.344 8.657l5.25-2.188c-1.206-2.469-2.787-4.934-3.344-6.156-1.56-3.422-2.13-4.954-2-7.563 0.126-2.522 0.998-4.075 2.531-5.562 1.534-1.487 3.624-2.226 6.157-1.875 5.364 0.743 7.09 4.803 7.218 6.781 0.106 1.627-1.035 5.634-5.156 5.438-2.857-0.136-4.463-1.751-4.656-4.438-0.143-1.98 1.773-3.947 4.875-2.937 0.499 0.162 0.533-0.733-0.031-1.188-1.453-1.17-7.207-0.723-7.188 3.875 0.018 4.261 3.427 7.106 6.719 7.125 6.895 0.041 8.217-5.402 7.969-9.156-0.276-4.16-5.491-9.188-11.438-9.187z"/>
  <path id="path3609" style="opacity:.77381;fill:#466170;fill-rule:evenodd" d="m37.656 11.969l-5.25 2.187c1.206 2.47 2.787 4.934 3.344 6.156 1.56 3.423 2.13 4.954 2 7.563-0.126 2.522-0.998 4.044-2.531 5.531-1.534 1.487-3.624 2.257-6.157 1.906-5.364-0.742-7.09-4.803-7.218-6.781-0.106-1.626 1.035-5.633 5.156-5.437 2.857 0.136 4.463 1.719 4.656 4.406 0.143 1.98-1.773 3.979-4.875 2.969-0.499-0.163-0.533 0.733 0.031 1.187 1.453 1.171 7.207 0.723 7.188-3.875-0.018-4.261-3.427-7.137-6.719-7.156-6.895-0.041-8.217 5.433-7.969 9.187 0.276 4.16 5.491 9.189 11.438 9.188 3.812 0 8.408-2.848 10.25-7.5v-10.875c-0.854-3.33-2.204-5.897-3.344-8.656z"/>
  <path id="path3611" style="fill:#a9c5d3;fill-rule:evenodd" d="m37.5 10.688l-5.25 2.187c1.205 2.47 2.786 4.934 3.344 6.156 1.56 3.423 2.13 4.954 2 7.563-0.126 2.521-0.998 4.044-2.532 5.531-1.533 1.487-3.623 2.257-6.156 1.906-5.364-0.742-7.09-4.803-7.218-6.781-0.106-1.627 1.034-5.633 5.156-5.438 2.857 0.136 4.463 1.72 4.656 4.407 0.142 1.98-1.774 3.978-4.875 2.969-0.499-0.163-0.533 0.732 0.031 1.187 1.453 1.171 7.238 0.723 7.219-3.875-0.018-4.261-3.458-7.137-6.75-7.156-6.895-0.041-8.218 5.433-7.969 9.187 0.276 4.16 5.491 9.189 11.438 9.188 3.923 0 8.678-3.011 10.406-7.907v-9.906c-0.837-3.605-2.298-6.308-3.5-9.218z"/>
  <path id="path2435" style="opacity:.4;stroke:url(#linearGradient2626);fill:none" d="m40.5 10.259v33.263h-33v-42.044c7.562-0.0003 15.304-0.0003 22.866-0.0003"/>
  <path id="path12038" style="opacity:.4;fill-rule:evenodd;filter:url(#filter3212)" d="m28.617 0.92126c4.283 0 2.154 8.4831 2.154 8.4831s10.357-1.8023 10.357 2.8186c0-2.6095-11.302-10.728-12.511-11.302z"/>
  <path id="path4474" style="fill:url(#linearGradient2601);fill-rule:evenodd" d="m28.617 0.92126c3.187 0 2.336 7.6618 2.336 7.6618s10.175-0.981 10.175 3.6399c0-1.126 0.086-1.932-0.134-2.2834-1.578-2.5242-8.113-8.1884-10.575-8.9308-0.184-0.05556-0.875-0.08754-1.802-0.08754z"/>
 </g>
</svg>
